X:1
T:Title
%%score { ( 1 2 ) | ( 3 4 ) }
L:1/8
M:9/8
K:Ab
V:1 treble nm="Grand Piano"
V:2 treble 
V:3 bass 
V:4 bass 
V:1
 z3 z3[Q:1/4=113] [CA]2 B | [Ec]3- [Ec][DEB][CEA] .[DFB]2 [A,DF] | [A,CE]3 [CEA]3 [Ec]2 [Ed] | %3
 [CEe]3- [CEe][Ed][Ec] [Ec]B[CA] |[M:3/4] [EGB]6 |[M:3/8] [CEA]2 B | %6
[M:9/8] [Ec]3- [Ec]B[CEA] .[DFB]2 [A,DF] | [A,CE]2 [CEA] [Ec]3 [Ec]2 [Ed] | %8
 [CEe]3- [CEe]2 [Ec] [DB]A[B,EG] |[M:3/4] [CEA]6 |[M:3/8] c2 d |[M:9/8] e3- e2 c edc | c3 B3 c2 B | %13
 A3- AGA [=DB]2 [Dc] |[M:3/4] [EB]6 |[M:3/8] [CEA]2 [DEB] | %16
[M:9/8] [Ec]3- [Ec][DEB][CEA] .[DFB]2 [A,DF] | [CE]3 [CEA]3 c2 d | %18
 [CEe]3- [CEe]2 [Ec] [DB]A[B,EG] |[M:3/4] [CEA]6 |] %20
V:2
 z3 z3 E3 | x9 | x9 | x9 |[M:3/4] x6 |[M:3/8] x3 |[M:9/8] x9 | x9 | z3 z3 .E3 |[M:3/4] x6 | %10
[M:3/8] E3 |[M:9/8] x9 | x9 | x9 |[M:3/4] x6 |[M:3/8] x3 |[M:9/8] x9 | z3 z3 E3 | z3 z3 .E3 | %19
[M:3/4] x6 |] %20
V:3
 z3 z3 z2 D | A,,3- A,,A,,A,, z AD, | A,,3 A,,3 [A,,A,]2 [A,,B,] | z3 z B,[A,,A,] z DA,, | %4
[M:3/4] E,6 |[M:3/8] z z D |[M:9/8] z3 z DA,, z AD, | A,,2 A,, A,,3 [A,,A,]2 [A,,B,] | z3 z3 .E,3 | %9
[M:3/4] A,,6 |[M:3/8] A,2 B, |[M:9/8] [A,CE]3- [A,CE]2 [A,E] [G,B,E]2 [A,E] | %12
 [E,A,E]3 [E,G,E]3 [E,G,E]2 [E,G,D] | [F,A,C]3- [F,A,C]2 [F,A,C] [B,,A,]2 [B,,A,] | %14
[M:3/4] [E,G,]6 |[M:3/8] A,,2 A,, |[M:9/8] A,,3- A,,A,,A,, z AD, | z3 z3 .A,3 | z3 z3 .E,3 | %19
[M:3/4] A,,6 |] %20
V:4
 z3 z3 A,,3 | z3 z3 .D,3 | x9 | A,,6 .A,,3 |[M:3/4] x6 |[M:3/8] A,,3 |[M:9/8] A,,6 .D,3 | x9 | %8
 A,,3- A,,2 A,, z CE, |[M:3/4] x6 |[M:3/8] x3 |[M:9/8] x9 | x9 | x9 |[M:3/4] x6 |[M:3/8] x3 | %16
[M:9/8] z3 z3 .D,3 | A,,3 A,,3 A,,2- [A,,B,] | A,,3- A,,2 A,, z CE, |[M:3/4] x6 |] %20

